core/schema/project/CONFIG/COLOR/SHOW_LUT/LMT_TEST.cube
TITLE "Generated by Resolve"
LUT_3D_SIZE 9
0.0838483 0.0865797 0.0851606
0.169162 0.088426 0.06598
0.2607 0.0896162 0.0445258
0.356588 0.0905013 0.0216983
0.455879 0.0912184 0
0.558007 0.0918593 0
0.662593 0.0924849 0
0.769345 0.0931106 0
0.87805 0.0937514 0
0.0789807 0.177096 0.0799725
0.183276 0.17377 0.0833753
0.269734 0.177981 0.0717327
0.358221 0.18378 0.0449531
0.455817 0.187228 0.0200656
0.557946 0.189792 0
0.663127 0.191959 0
0.770733 0.193927 0
0.880385 0.195773 0
0.0745556 0.275868 0.0751812
0.178241 0.275151 0.0748608
0.29337 0.270588 0.0838636
0.392126 0.272404 0.0829023
0.479026 0.280598 0.0589609
0.57174 0.288014 0.0300298
0.671901 0.293477 0.002533
0.776883 0.29778 0
0.885206 0.301457 0
0.0708324 0.380667 0.0710918
0.172137 0.382177 0.07187
0.292943 0.378073 0.0747387
0.411048 0.374289 0.086305
0.51809 0.374975 0.0902571
0.612222 0.381842 0.0752575
0.70341 0.391241 0.0476387
0.799756 0.39971 0.0175021
0.902296 0.406546 0
0.0678569 0.490288 0.0677195
0.168856 0.493095 0.0698405
0.286213 0.49163 0.0697185
0.413672 0.486671 0.0778515
0.534752 0.483467 0.0903792
0.647654 0.48365 0.0970169
0.749249 0.489021 0.0890516
0.844129 0.498146 0.0670176
0.9393 0.508247 0.0377356
0.0655985 0.603952 0.0650492
0.166827 0.607736 0.0682841
0.280919 0.608362 0.0683146
0.409995 0.604532 0.0713664
0.539483 0.6 0.0827649
0.663462 0.597238 0.0959029
0.780926 0.597177 0.10428
0.888701 0.601465 0.101183
0.989029 0.609552 0.0852522
0.0639963 0.721126 0.063035
0.165637 0.725734 0.067216
0.278126 0.727749 0.0681163
0.404166 0.72604 0.0687724
0.538918 0.721325 0.0760052
0.669856 0.717403 0.0891127
0.796521 0.714946 0.102739
0.917739 0.714778 0.112367
1 0.718334 0.112703
0.063035 0.841398 0.0616464
0.165118 0.846738 0.0666209
0.27689 0.849775 0.0684672
0.399878 0.849897 0.0687724
0.534752 0.846403 0.0721599
0.671824 0.841764 0.0825971
0.804303 0.838361 0.0966964
0.933394 0.836179 0.110735
1 0.835981 0.121355
0.0626535 0.964492 0.060853
0.165194 0.970474 0.0665293
0.276707 0.974319 0.0692302
0.397742 0.975799 0.0699321
0.530114 0.974044 0.0713512
0.670054 0.969711 0.0780804
0.808301 0.965484 0.0906386
0.942382 0.962509 0.105394
1 0.960571 0.119829
0.0825513 0.0856184 0.179706
0.176349 0.0834821 0.17789
0.277272 0.0819867 0.158312
0.374624 0.0833753 0.12903
0.473991 0.0845808 0.102708
0.576181 0.0855573 0.0770581
0.680888 0.0863966 0.0514076
0.787793 0.0871595 0.0255741
0.896666 0.0878767 0
0.0482643 0.18497 0.183215
0.174136 0.176638 0.175341
0.267659 0.179797 0.155718
0.365347 0.182467 0.134508
0.4663 0.184833 0.112154
0.56997 0.187015 0.0889143
0.67599 0.189044 0.0649882
0.784085 0.190967 0.0404974
0.894026 0.192828 0.0155795
0.0475624 0.285161 0.161105
0.171603 0.277348 0.172457
0.284794 0.274052 0.176425
0.376684 0.279133 0.165331
0.468956 0.286198 0.138201
0.570153 0.290822 0.113191
0.675624 0.294514 0.0888533
0.783917 0.297749 0.0645457
0.894377 0.300725 0.0400854
0.0575265 0.386221 0.159228
0.169406 0.383703 0.169863
0.281621 0.38265 0.169345
0.402914 0.37821 0.179294
0.506264 0.380545 0.179232
0.596506 0.389578 0.155673
0.691737 0.398062 0.126467
0.794263 0.404562 0.0985733
0.901625 0.409842 0.0718395
0.0600443 0.494423 0.158236
0.167697 0.494606 0.167758
0.276982 0.495628 0.168017
0.404227 0.491325 0.171359
0.52697 0.48777 0.183749
0.637873 0.488853 0.188525
0.735271 0.496223 0.174319
0.82887 0.506386 0.146944
0.927108 0.51577 0.116564
0.0605478 0.607492 0.157153
0.166522 0.609384 0.166186
0.275196 0.611582 0.167636
0.398871 0.609796 0.167483
0.531121 0.604807 0.176364
0.656001 0.601846 0.189609
0.772229 0.60235 0.196979
0.876799 0.608103 0.189807
0.974182 0.617731 0.168429
0.0606241 0.724407 0.156252
0.165881 0.727565 0.165133
0.274617 0.730632 0.167605
0.39469 0.730877 0.167315
0.528832 0.726818 0.17084
0.662089 0.722393 0.182956
0.789319 0.71986 0.196735
0.909712 0.720073 0.205753
1 0.724681 0.203387
0.0607919 0.844587 0.155688
0.165789 0.848737 0.164614
0.2748 0.852537 0.167926
0.392966 0.854154 0.168414
0.524102 0.852125 0.169192
0.662821 0.847349 0.177066
0.796948 0.843565 0.190799
0.926436 0.841337 0.20499
1 0.841428 0.215213
0.0612497 0.967651 0.155535
0.166201 0.972641 0.164599
0.275578 0.977081 0.168643
0.392844 0.979675 0.170001
0.520729 0.979461 0.170184
0.659831 0.975753 0.174014
0.800107 0.97116 0.185092
0.935347 0.96791 0.199756
1 0.965942 0.214328
0.0807202 0.0841688 0.281651
0.174762 0.0822614 0.280049
0.275654 0.0793011 0.27744
0.383536 0.0760815 0.264851
0.490913 0.0755932 0.234257
0.595499 0.0768139 0.201419
0.700694 0.0781872 0.171084
0.807614 0.0794385 0.14226
0.916396 0.0805829 0.114168
0.0618143 0.178439 0.299336
0.173159 0.176028 0.278111
0.275746 0.174762 0.277195
0.383368 0.174441 0.258259
0.485939 0.177234 0.228962
0.589624 0.179843 0.20293
0.695628 0.182162 0.177768
0.803784 0.184298 0.152651
0.913848 0.186297 0.127337
0.0112917 0.292744 0.290608
0.13843 0.286015 0.284352
0.274968 0.277211 0.276051
0.374014 0.281239 0.256107
0.476249 0.284871 0.234928
0.581125 0.288243 0.212787
0.688304 0.291402 0.189868
0.797482 0.294423 0.166293
0.908476 0.297337 0.142168
0 0.404379 0.259144
0.139513 0.393866 0.262928
0.274174 0.384985 0.274876
0.393515 0.381826 0.279377
0.489509 0.387579 0.268605
0.584955 0.39559 0.241199
0.689189 0.401068 0.216114
0.797528 0.4056 0.191852
0.908461 0.409644 0.167681
0.0138399 0.51017 0.247349
0.152514 0.500618 0.262867
0.273671 0.497108 0.273976
0.391806 0.49604 0.273503
0.517922 0.491753 0.284199
0.624933 0.49453 0.284749
0.717983 0.50425 0.261387
0.815473 0.513573 0.231998
0.920211 0.520867 0.203967
0.0292668 0.61915 0.246677
0.157366 0.613733 0.263767
0.273548 0.612955 0.273442
0.388418 0.613855 0.273548
0.520638 0.609506 0.277287
0.647257 0.606149 0.290379
0.761364 0.607584 0.295766
0.861479 0.615427 0.282063
0.957229 0.62623 0.254856
0.038468 0.733486 0.247944
0.159747 0.731182 0.264393
0.273854 0.732067 0.27332
0.3879 0.734051 0.274525
0.516457 0.732128 0.274434
0.652689 0.727184 0.283909
0.780835 0.724437 0.29778
0.899931 0.725246 0.30573
1 0.731365 0.299123
0.0442359 0.85211 0.249409
0.161471 0.852003 0.265049
0.274601 0.854109 0.273655
0.388571 0.856886 0.275792
0.513237 0.856992 0.27541
0.65156 0.852827 0.279286
0.788113 0.848493 0.291966
0.918196 0.846159 0.306294
1 0.846662 0.315862
0.0484016 0.974182 0.250919
0.163104 0.975738 0.265919
0.275792 0.978805 0.274403
0.389944 0.982238 0.277333
0.512551 0.983658 0.277607
0.647822 0.981476 0.278508
0.78996 0.976684 0.2869
0.926925 0.973022 0.301167
1 0.970993 0.315862
0.078584 0.082414 0.388586
0.172824 0.0807202 0.387228
0.27393 0.0779736 0.384802
0.379751 0.0746166 0.381796
0.491493 0.0708629 0.372274
0.605676 0.0686046 0.347433
0.717311 0.0686503 0.313207
0.827085 0.0698711 0.278309
0.936996 0.0713359 0.245457
0.0699931 0.17528 0.399115
0.171832 0.175097 0.385885
0.274556 0.173953 0.385107
0.381918 0.172091 0.383612
0.495171 0.170031 0.372152
0.60737 0.170687 0.342275
0.71606 0.173144 0.30959
0.824781 0.175769 0.2795
0.934859 0.178241 0.251011
0.0206149 0.286091 0.427237
0.152956 0.279408 0.40737
0.274205 0.276829 0.384375
0.382727 0.276143 0.38407
0.495293 0.2766 0.365393
0.601877 0.280354 0.335973
0.709041 0.283955 0.310063
0.818189 0.287251 0.285176
0.929213 0.290333 0.26041
0 0.407233 0.404715
0.101839 0.401846 0.399802
0.239399 0.394217 0.392676
0.383276 0.385245 0.384222
0.486564 0.389929 0.364034
0.592447 0.394293 0.34284
0.700587 0.398413 0.320806
0.810712 0.402365 0.29807
0.922606 0.406149 0.274739
0 0.526482 0.370581
0.0891585 0.519875 0.368933
0.241978 0.507897 0.371908
0.383902 0.498512 0.384451
0.508034 0.495537 0.38941
0.607355 0.501854 0.378866
0.705516 0.510597 0.351217
0.812375 0.516777 0.326055
0.923201 0.521981 0.301823
0 0.64036 0.348531
0.107118 0.630732 0.357717
0.257252 0.619333 0.373342
0.384787 0.615366 0.384924
0.507546 0.614359 0.384573
0.637659 0.610239 0.395895
0.747753 0.613413 0.396948
0.843214 0.623728 0.373678
0.942718 0.633753 0.344106
0 0.752422 0.341573
0.125246 0.743816 0.358312
0.263905 0.736629 0.375769
0.386007 0.735393 0.385718
0.505226 0.736309 0.385809
0.641581 0.731975 0.389899
0.771511 0.728801 0.403586
0.888411 0.730556 0.409506
0.990875 0.738827 0.39617
0.00151064 0.867552 0.342046
0.136812 0.861799 0.361074
0.267826 0.857832 0.377813
0.387564 0.858259 0.386862
0.505837 0.860197 0.387976
0.638392 0.858228 0.387991
0.778073 0.85333 0.397955
0.909102 0.850782 0.41236
1 0.851865 0.420813
0.0150759 0.986999 0.34464
0.144549 0.983795 0.364004
0.270924 0.982101 0.379782
0.389517 0.983719 0.388373
0.507607 0.986374 0.390356
0.636103 0.986419 0.389944
0.777981 0.982208 0.394141
0.917449 0.977981 0.40734
1 0.975845 0.422156
0.0762036 0.0804303 0.499397
0.170657 0.0789654 0.498253
0.271946 0.0764019 0.49601
0.377951 0.0732128 0.493187
0.487648 0.0696269 0.489952
0.602365 0.0656748 0.481956
0.720623 0.0624704 0.461921
0.838148 0.0611582 0.4309
0.953368 0.0615396 0.394842
0.0710918 0.173526 0.50634
0.17023 0.173892 0.497475
0.273106 0.1729 0.496849
0.380591 0.171176 0.495476
0.491661 0.168933 0.493629
0.60795 0.166308 0.485252
0.726329 0.165103 0.461555
0.841871 0.166201 0.428
0.955077 0.168505 0.393362
0.0403906 0.279026 0.538399
0.162432 0.276341 0.511131
0.273152 0.276188 0.496513
0.381796 0.275608 0.496315
0.493965 0.274449 0.495567
0.61146 0.273167 0.484764
0.727474 0.274662 0.455238
0.83946 0.278035 0.422553
0.951125 0.28159 0.39263
0 0.401083 0.551934
0.111543 0.395209 0.542214
0.254658 0.387549 0.520821
0.382666 0.385031 0.496803
0.495766 0.384802 0.496971
0.612299 0.38584 0.478447
0.722225 0.390341 0.448844
0.832319 0.39472 0.423011
0.944152 0.398779 0.398306
0 0.527199 0.524285
0.0648203 0.52285 0.520409
0.203189 0.516228 0.51429
0.347921 0.508202 0.506783
0.49749 0.499153 0.498283
0.604242 0.504387 0.477913
0.713222 0.509346 0.456672
0.824155 0.514092 0.434699
0.936843 0.518669 0.412085
0 0.652094 0.489204
0.045594 0.647456 0.48687
0.191363 0.639384 0.483925
0.351781 0.626657 0.486625
0.499336 0.616983 0.499733
0.627405 0.614176 0.505089
0.729564 0.620981 0.494728
0.830091 0.63035 0.466865
0.9393 0.637125 0.441627
0 0.773007 0.461357
0.0542 0.766033 0.465187
0.210971 0.754482 0.473426
0.368917 0.742077 0.489326
0.501411 0.737881 0.501381
0.627985 0.73698 0.501183
0.761517 0.733013 0.513054
0.874296 0.736522 0.514519
0.971893 0.747372 0.491295
0 0.890455 0.44651
0.0768444 0.881971 0.458732
0.23125 0.871153 0.475181
0.377066 0.863005 0.493065
0.503777 0.86154 0.503319
0.626642 0.862531 0.503456
0.766506 0.858228 0.507866
0.899351 0.855238 0.522087
1 0.857267 0.52845
0 1 0.442359
0.098085 1 0.460151
0.244587 0.992447 0.47921
0.3823 0.987549 0.49633
0.506462 0.987732 0.505562
0.628244 0.989685 0.506661
0.764233 0.987716 0.506798
0.906935 0.982895 0.51722
1 0.980514 0.532113
0.07364 0.0782788 0.613382
0.168292 0.0770275 0.612436
0.269749 0.0746471 0.610391
0.375921 0.0716259 0.607721
0.485786 0.0681926 0.604639
0.598703 0.0644846 0.601282
0.715984 0.0604257 0.594171
0.837064 0.056733 0.577447
0.95874 0.0543984 0.550561
0.0702678 0.171893 0.618647
0.168429 0.172503 0.612222
0.271443 0.171649 0.611734
0.379034 0.170047 0.610498
0.490242 0.167926 0.608743
0.604425 0.165438 0.606653
0.723125 0.162539 0.599771
0.845075 0.160357 0.580911
0.96611 0.159991 0.550942
0.0520485 0.275013 0.644129
0.164263 0.274907 0.621698
0.271885 0.275334 0.611811
0.380636 0.274861 0.611704
0.492912 0.273808 0.611048
0.608118 0.272328 0.609979
0.728099 0.270481 0.602365
0.849928 0.270054 0.579339
0.968643 0.271962 0.546166
0 0.392828 0.680323
0.132479 0.388052 0.657786
0.264988 0.384558 0.627848
0.381811 0.384604 0.612512
0.495003 0.384451 0.612757
0.611093 0.383841 0.612558
0.732113 0.383154 0.602243
0.851331 0.38529 0.572885
0.96614 0.389395 0.5402
0 0.521447 0.678401
0.0709392 0.516747 0.672435
0.213245 0.50959 0.661326
0.363775 0.501472 0.639078
0.497002 0.499077 0.614359
0.613855 0.499245 0.614923
0.733745 0.500755 0.596475
0.846525 0.505867 0.566735
0.959182 0.510872 0.540902
0 0.651728 0.648402
0.0276646 0.648219 0.64535
0.166629 0.642496 0.640146
0.312078 0.635309 0.633494
0.462364 0.627054 0.625788
0.616632 0.61799 0.617288
0.72636 0.623697 0.59675
0.83801 0.62916 0.575448
0.9514 0.634424 0.553506
0 0.781201 0.61294
0.00521859 0.777691 0.610803
0.148013 0.771634 0.607141
0.300999 0.762798 0.603555
0.467369 0.749599 0.60618
0.619562 0.739727 0.619791
0.751003 0.737087 0.625513
0.855634 0.744335 0.61529
0.958282 0.754238 0.587243
0 0.907759 0.581933
0.00541695 0.902785 0.583337
0.157626 0.894148 0.585916
0.322087 0.881559 0.593759
0.486076 0.868482 0.609995
0.62269 0.864164 0.622492
0.752544 0.863386 0.622431
0.889067 0.859556 0.634791
1 0.863401 0.636622
0 1 0.560922
0.0235599 1 0.568795
0.181857 1 0.580087
0.344182 1 0.596597
0.495537 0.99263 0.614878
0.626078 0.991058 0.625437
0.752056 0.992142 0.62565
0.895018 0.9879 0.63035
1 0.985061 0.645045
0.0709392 0.0760052 0.730068
0.165774 0.0749371 0.72932
0.267414 0.0727398 0.727443
0.373739 0.0698863 0.724941
0.483742 0.0666056 0.722011
0.596811 0.0630198 0.718791
0.712505 0.0592203 0.715358
0.832029 0.0551156 0.708812
0.955367 0.0511635 0.694377
0.0687266 0.170169 0.734508
0.166461 0.170962 0.729656
0.269596 0.170245 0.72929
0.377325 0.168765 0.728176
0.48864 0.166751 0.726558
0.60293 0.16437 0.724559
0.719783 0.1617 0.722286
0.840604 0.158663 0.716228
0.965011 0.155932 0.700648
0.0569772 0.272557 0.754574
0.164004 0.27364 0.737011
0.270436 0.274311 0.729763
0.379278 0.273945 0.729763
0.491661 0.272984 0.729213
0.606958 0.271595 0.728222
0.724773 0.269871 0.726909
0.846799 0.267765 0.720806
0.971847 0.266331 0.702724
0.0196689 0.386114 0.793225
0.145541 0.384024 0.766293
0.267308 0.383352 0.741268
0.380789 0.383993 0.730892
0.494057 0.383932 0.731228
0.610239 0.383413 0.731106
0.728878 0.382513 0.730632
0.852018 0.381277 0.723583
0.976791 0.381476 0.700999
0 0.513115 0.819364
0.0912947 0.508461 0.805081
0.23505 0.502388 0.780407
0.374731 0.498573 0.748898
0.496315 0.498817 0.733074
0.613245 0.499046 0.733715
0.732631 0.498878 0.733974
0.856687 0.49868 0.72401
0.978683 0.50135 0.694728
0 0.64625 0.807706
0.0316014 0.642527 0.803586
0.172946 0.636423 0.796201
0.322438 0.628656 0.784405
0.478737 0.620295 0.761563
0.616251 0.618036 0.736324
0.736309 0.618524 0.737224
0.859113 0.620462 0.718853
0.974395 0.626078 0.68893
0 0.780194 0.77644
0 0.77731 0.774029
0.129854 0.772473 0.769711
0.275914 0.766033 0.763806
0.426856 0.758511 0.756832
0.581765 0.750134 0.74902
0.740047 0.74107 0.740536
0.852354 0.747189 0.71986
0.966384 0.753094 0.698512
0 0.913573 0.740841
0 0.910872 0.739116
0.107759 0.906035 0.735759
0.257908 0.899077 0.731243
0.416495 0.889769 0.727291
0.587777 0.876249 0.729931
0.743923 0.866255 0.743984
0.87834 0.863783 0.750057
0.985168 0.871412 0.739956
0 1 0.708049
0 1 0.708537
0.108659 1 0.708721
0.268467 1 0.710491
0.43888 1 0.718151
0.607889 0.99823 0.734737
0.748012 0.993851 0.747631
0.880735 0.99321 0.747738
1 0.989517 0.76054
0.0681163 0.0736095 0.849119
0.163134 0.0727398 0.848569
0.264927 0.0707103 0.84686
0.371405 0.0680095 0.844511
0.481559 0.0648661 0.841718
0.594751 0.0614328 0.838636
0.710582 0.0577554 0.835325
0.828702 0.0539101 0.831846
0.950271 0.0497749 0.825711
0.066804 0.168353 0.853178
0.16434 0.169268 0.849439
0.267613 0.168688 0.849195
0.375448 0.16733 0.848203
0.48687 0.165438 0.846708
0.601282 0.163165 0.844816
0.718242 0.160601 0.842634
0.837446 0.157794 0.840238
0.960204 0.15465 0.834714
0.0586862 0.270634 0.869581
0.162951 0.272343 0.855604
0.268833 0.273136 0.850065
0.377783 0.272877 0.850172
0.490242 0.272023 0.849699
0.605646 0.270726 0.848814
0.723552 0.269093 0.847578
0.843671 0.26717 0.846082
0.967514 0.264897 0.840803
0.0331884 0.381674 0.903578
0.151431 0.38172 0.879149
0.26743 0.382361 0.85919
0.379599 0.38323 0.851591
0.492958 0.383261 0.852018
0.609201 0.382818 0.851987
0.727932 0.381994 0.851575
0.848844 0.380865 0.850874
0.973739 0.379355 0.845365
0 0.504891 0.944244
0.112673 0.501625 0.921263
0.249058 0.49839 0.891371
0.377417 0.497536 0.864805
0.495476 0.498405 0.854139
0.612482 0.498711 0.854841
0.731929 0.498604 0.855177
0.853559 0.498192 0.855177
0.979461 0.497444 0.848585
0 0.638209 0.957595
0.0489357 0.634272 0.948409
0.193805 0.628122 0.932326
0.34493 0.621424 0.906432
0.490211 0.617441 0.873808
0.615702 0.617914 0.857664
0.735821 0.618479 0.85864
0.858091 0.618677 0.859281
0.984817 0.618875 0.849607
0 0.774945 0.939971
0 0.771908 0.936934
0.133944 0.766827 0.931456
0.282414 0.759991 0.923323
0.437491 0.751858 0.911116
0.598581 0.743328 0.887816
0.739757 0.741222 0.862165
0.862608 0.742016 0.863386
0.988006 0.744305 0.845029
0 0.912123 0.907958
0 0.909865 0.906172
0.0930037 0.90576 0.902571
0.239567 0.900008 0.897353
0.391073 0.893141 0.891035
0.546563 0.885405 0.883864
0.705425 0.876951 0.876005
0.867216 0.867918 0.867552
0.981842 0.874403 0.846769
0 1 0.872312
0 1 0.871122
0.0688792 1 0.868208
0.21799 1 0.863859
0.373632 1 0.858885
0.536858 1 0.854704
0.712367 1 0.857374
0.871977 0.996185 0.87187
1 0.993866 0.878248
0.0651865 0.0711223 0.970275
0.160372 0.0704356 0.969909
0.262333 0.068574 0.968383
0.368963 0.0660258 0.966171
0.479271 0.0630198 0.963531
0.592584 0.0597238 0.960571
0.708522 0.0561685 0.957382
0.826764 0.05243 0.954009
0.947082 0.0485542 0.9505
0.0646372 0.166415 0.974212
0.162097 0.167468 0.971298
0.265492 0.16701 0.971191
0.373449 0.165774 0.970321
0.484993 0.164004 0.968933
0.599496 0.161837 0.967147
0.716548 0.159365 0.965072
0.835859 0.156664 0.962753
0.957183 0.153765 0.960266
0.0588388 0.268864 0.988144
0.161486 0.270939 0.976806
0.267109 0.271839 0.972427
0.37615 0.271672 0.972641
0.488701 0.270909 0.972274
0.604196 0.269718 0.971466
0.722179 0.268162 0.970336
0.84239 0.266346 0.968917
0.964584 0.264286 0.967285
0.0408331 0.378668 1
0.153872 0.380041 0.996277
0.266712 0.381353 0.980209
0.378271 0.38233 0.97438
0.491707 0.382452 0.974884
0.608026 0.382086 0.974929
0.726833 0.381338 0.974594
0.847837 0.380285 0.973968
0.970779 0.378973 0.973083
0 0.49839 1
0.127489 0.497124 1
0.255604 0.496223 1
0.377829 0.496757 0.985046
0.494484 0.497856 0.977264
0.611551 0.498222 0.978042
0.731075 0.498192 0.978439
0.852781 0.497841 0.9785
0.97641 0.4972 0.978302
0 0.629465 1
0.0721447 0.626001 1
0.216052 0.621241 1
0.35967 0.617456 1
0.493202 0.616556 0.991958
0.615015 0.617655 0.981094
0.735195 0.61828 0.982132
0.857511 0.61854 0.982834
0.981765 0.618524 0.983246
0 0.767224 1
0.00759899 0.763989 1
0.151644 0.758572 1
0.303731 0.751675 1
0.460594 0.744595 1
0.610483 0.740551 1
0.73933 0.741222 0.98584
0.862226 0.742077 0.987121
0.987045 0.742611 0.988098
0 0.907057 1
0 0.904692 1
0.0956283 0.900404 1
0.243793 0.894392 1
0.397757 0.887098 1
0.557458 0.878737 1
0.722637 0.87013 1
0.867018 0.868162 0.991485
0.99237 0.869215 0.992981
0 1 1
0 1 1
0.0561685 1 1
0.203128 1 1
0.355138 1 1
0.511131 1 1
0.670512 1 1
0.832837 1 1
0.997787 0.998138 0.997955
