core/schema/project/CONFIG/COLOR/SHOW_LUT/LMT_TEST.cube
TITLE "Generated by Resolve"
LUT_3D_SIZE 5
0.0838483 0.0865797 0.0851606
0.2607 0.0896162 0.0445258
0.455879 0.0912184 0
0.662593 0.0924849 0
0.87805 0.0937514 0
0.0745556 0.275868 0.0751812
0.29337 0.270588 0.0838636
0.479026 0.280598 0.0589609
0.671901 0.293477 0.002533
0.885206 0.301457 0
0.0678569 0.490288 0.0677195
0.286213 0.49163 0.0697185
0.534752 0.483467 0.0903792
0.749249 0.489021 0.0890516
0.9393 0.508247 0.0377356
0.0639963 0.721126 0.063035
0.278126 0.727749 0.0681163
0.538918 0.721325 0.0760052
0.796521 0.714946 0.102739
1 0.718334 0.112703
0.0626535 0.964492 0.060853
0.276707 0.974319 0.0692302
0.530114 0.974044 0.0713512
0.808301 0.965484 0.0906386
1 0.960571 0.119829
0.0807202 0.0841688 0.281651
0.275654 0.0793011 0.27744
0.490913 0.0755932 0.234257
0.700694 0.0781872 0.171084
0.916396 0.0805829 0.114168
0.0112917 0.292744 0.290608
0.274968 0.277211 0.276051
0.476249 0.284871 0.234928
0.688304 0.291402 0.189868
0.908476 0.297337 0.142168
0.0138399 0.51017 0.247349
0.273671 0.497108 0.273976
0.517922 0.491753 0.284199
0.717983 0.50425 0.261387
0.920211 0.520867 0.203967
0.038468 0.733486 0.247944
0.273854 0.732067 0.27332
0.516457 0.732128 0.274434
0.780835 0.724437 0.29778
1 0.731365 0.299123
0.0484016 0.974182 0.250919
0.275792 0.978805 0.274403
0.512551 0.983658 0.277607
0.78996 0.976684 0.2869
1 0.970993 0.315862
0.0762036 0.0804303 0.499397
0.271946 0.0764019 0.49601
0.487648 0.0696269 0.489952
0.720623 0.0624704 0.461921
0.953368 0.0615396 0.394842
0.0403906 0.279026 0.538399
0.273152 0.276188 0.496513
0.493965 0.274449 0.495567
0.727474 0.274662 0.455238
0.951125 0.28159 0.39263
0 0.527199 0.524285
0.203189 0.516228 0.51429
0.49749 0.499153 0.498283
0.713222 0.509346 0.456672
0.936843 0.518669 0.412085
0 0.773007 0.461357
0.210971 0.754482 0.473426
0.501411 0.737881 0.501381
0.761517 0.733013 0.513054
0.971893 0.747372 0.491295
0 1 0.442359
0.244587 0.992447 0.47921
0.506462 0.987732 0.505562
0.764233 0.987716 0.506798
1 0.980514 0.532113
0.0709392 0.0760052 0.730068
0.267414 0.0727398 0.727443
0.483742 0.0666056 0.722011
0.712505 0.0592203 0.715358
0.955367 0.0511635 0.694377
0.0569772 0.272557 0.754574
0.270436 0.274311 0.729763
0.491661 0.272984 0.729213
0.724773 0.269871 0.726909
0.971847 0.266331 0.702724
0 0.513115 0.819364
0.23505 0.502388 0.780407
0.496315 0.498817 0.733074
0.732631 0.498878 0.733974
0.978683 0.50135 0.694728
0 0.780194 0.77644
0.129854 0.772473 0.769711
0.426856 0.758511 0.756832
0.740047 0.74107 0.740536
0.966384 0.753094 0.698512
0 1 0.708049
0.108659 1 0.708721
0.43888 1 0.718151
0.748012 0.993851 0.747631
1 0.989517 0.76054
0.0651865 0.0711223 0.970275
0.262333 0.068574 0.968383
0.479271 0.0630198 0.963531
0.708522 0.0561685 0.957382
0.947082 0.0485542 0.9505
0.0588388 0.268864 0.988144
0.267109 0.271839 0.972427
0.488701 0.270909 0.972274
0.722179 0.268162 0.970336
0.964584 0.264286 0.967285
0 0.49839 1
0.255604 0.496223 1
0.494484 0.497856 0.977264
0.731075 0.498192 0.978439
0.97641 0.4972 0.978302
0 0.767224 1
0.151644 0.758572 1
0.460594 0.744595 1
0.73933 0.741222 0.98584
0.987045 0.742611 0.988098
0 1 1
0.0561685 1 1
0.355138 1 1
0.670512 1 1
0.997787 0.998138 0.997955
