core/schema/project/CONFIG/COLOR/SHOW_LUT/LMT_TEST.cube
TITLE "Generated by Resolve"
LUT_3D_SIZE 65
0.0838483 0.0865797 0.0851606
0.0940414 0.0868696 0.082948
0.104402 0.0871443 0.0806744
0.1149 0.0873884 0.0783398
0.125521 0.0876173 0.0759594
0.136263 0.0878462 0.073518
0.147127 0.0880446 0.071046
0.158099 0.0882429 0.0685283
0.169162 0.088426 0.06598
0.180316 0.0885939 0.0634012
0.191562 0.0887617 0.0607767
0.202899 0.0889143 0.0581369
0.214313 0.0890669 0.0554665
0.225803 0.0892042 0.0527657
0.237369 0.0893568 0.0500343
0.248997 0.0894789 0.0472877
0.2607 0.0896162 0.0445258
0.27248 0.0897383 0.0417334
0.284321 0.0898604 0.0389258
0.296223 0.0899672 0.0361028
0.308171 0.0900893 0.0332494
0.320195 0.0901961 0.0303807
0.33228 0.0903029 0.027512
0.344411 0.0903944 0.0246128
0.356588 0.0905013 0.0216983
0.368826 0.0905928 0.0187839
0.381125 0.0906996 0.0158541
0.393469 0.0907912 0.0128939
0.405859 0.0908827 0.00994888
0.418296 0.0909743 0.00697337
0.430777 0.0910506 0.00399786
0.443305 0.0911421 0.00102235
0.455879 0.0912184 0
0.468498 0.09131 0
0.481163 0.0913863 0
0.493858 0.0914626 0
0.506615 0.0915389 0
0.519402 0.0916304 0
0.532235 0.0917067 0
0.545098 0.091783 0
0.558007 0.0918593 0
0.570947 0.0919356 0
0.583932 0.0920272 0
0.596948 0.0921035 0
0.61001 0.0921798 0
0.623102 0.092256 0
0.63624 0.0923323 0
0.649393 0.0924086 0
0.662593 0.0924849 0
0.675822 0.0925612 0
0.689082 0.0926375 0
0.702388 0.0927138 0
0.715709 0.0927901 0
0.729076 0.0928664 0
0.742473 0.092958 0
0.755886 0.0930343 0
0.769345 0.0931106 0
0.782834 0.0931868 0
0.796353 0.0932631 0
0.809888 0.0933394 0
0.823468 0.0934157 0
0.837064 0.0935073 0
0.85069 0.0935836 0
0.864363 0.0936599 0
0.87805 0.0937514 0
0.0832532 0.0973068 0.0845197
0.095491 0.0967727 0.0848096
0.105165 0.0972 0.0835584
0.114626 0.0978714 0.0806287
0.124895 0.0982986 0.0779736
0.135485 0.0986191 0.0754101
0.146288 0.0988937 0.0728923
0.157244 0.0991531 0.0703593
0.168307 0.099382 0.0678111
0.179492 0.0995956 0.0652476
0.190768 0.099794 0.0626688
0.202121 0.0999924 0.0600595
0.213581 0.100175 0.057435
0.225101 0.100343 0.0547799
0.236713 0.100511 0.0521096
0.248386 0.100664 0.0494087
0.260136 0.100816 0.0466926
0.271962 0.100969 0.0439612
0.283833 0.101106 0.0412146
0.295781 0.101244 0.0384375
0.30779 0.101381 0.0356603
0.31986 0.101518 0.0328527
0.331975 0.10164 0.0300298
0.344152 0.101762 0.0271916
0.35639 0.101884 0.0243381
0.368673 0.101991 0.0214847
0.381018 0.102113 0.0186007
0.393408 0.10222 0.0157168
0.405844 0.102327 0.0128176
0.418326 0.102434 0.0099031
0.430854 0.102541 0.00698863
0.443427 0.102647 0.0040589
0.456062 0.102739 0.00112917
0.468727 0.102831 0
0.481422 0.102937 0
0.494179 0.103029 0
0.506966 0.10312 0
0.519799 0.103212 0
0.532677 0.103304 0
0.545586 0.103395 0
0.558541 0.103487 0
0.571542 0.103578 0
0.584573 0.10367 0
0.597635 0.103761 0
0.610742 0.103853 0
0.62388 0.103944 0
0.637049 0.104036 0
0.650248 0.104112 0
0.663493 0.104204 0
0.676768 0.104295 0
0.690074 0.104372 0
0.703426 0.104463 0
0.716793 0.104555 0
0.73019 0.104646 0
0.743633 0.104723 0
0.757107 0.104814 0
0.770596 0.104906 0
0.784131 0.104982 0
0.797696 0.105074 0
0.811276 0.105165 0
0.824903 0.105241 0
0.838544 0.105333 0
0.852216 0.105425 0
0.865919 0.105516 0
0.879652 0.105592 0
0.0826429 0.108217 0.0838788
0.0947127 0.107866 0.0835889
0.107408 0.10721 0.0844739
0.118044 0.107301 0.0843824
0.127184 0.10808 0.0819104
0.136629 0.108858 0.0787976
0.146746 0.109438 0.0758526
0.15729 0.10988 0.0730297
0.168109 0.110246 0.0702831
0.179126 0.110582 0.0675822
0.190295 0.110872 0.0648966
0.201587 0.111131 0.062211
0.212985 0.111376 0.0595254
0.224475 0.111604 0.0568399
0.236057 0.111833 0.054139
0.24773 0.112032 0.0514229
0.25948 0.11223 0.0486915
0.27129 0.112428 0.0459602
0.283177 0.112612 0.0431983
0.295125 0.112779 0.0404212
0.307149 0.112947 0.037644
0.319219 0.113115 0.0348363
0.33135 0.113283 0.0320287
0.343542 0.113436 0.0291905
0.355795 0.113588 0.0263523
0.368093 0.113741 0.0234989
0.380453 0.113878 0.0206302
0.392844 0.114015 0.0177462
0.40531 0.114153 0.0148623
0.417807 0.11429 0.0119631
0.43035 0.114427 0.0090486
0.442954 0.114549 0.00614939
0.455589 0.114687 0.00321965
0.468269 0.114809 0.000289921
0.48101 0.114931 0
0.493767 0.115053 0
0.506584 0.11516 0
0.519432 0.115282 0
0.532326 0.115404 0
0.545266 0.115511 0
0.558236 0.115633 0
0.571237 0.11574 0
0.584298 0.115862 0
0.597375 0.115969 0
0.610498 0.116091 0
0.623652 0.116197 0
0.636851 0.116304 0
0.65008 0.116411 0
0.663325 0.116533 0
0.676631 0.11664 0
0.689952 0.116747 0
0.703319 0.116854 0
0.716701 0.11696 0
0.730129 0.117067 0
0.743572 0.117174 0
0.757061 0.117281 0
0.770581 0.117388 0
0.784131 0.117494 0
0.797711 0.117601 0
0.811307 0.117708 0
0.824948 0.117815 0
0.838605 0.117922 0
0.852308 0.118029 0
0.866026 0.118135 0
0.879774 0.118242 0
0.0820325 0.11931 0.0832227
0.0937209 0.119112 0.082948
0.107012 0.118425 0.0831006
0.119554 0.117861 0.0841993
0.13077 0.117784 0.0845502
0.140536 0.118349 0.0830549
0.149783 0.119203 0.0802167
0.15935 0.120027 0.0770275
0.169467 0.120699 0.0738994
0.17998 0.121248 0.0708934
0.190784 0.121706 0.0679789
0.201831 0.122118 0.0651102
0.213046 0.122469 0.0622873
0.224414 0.122789 0.0594797
0.235889 0.123095 0.0566873
0.247486 0.123369 0.0539101
0.259174 0.123629 0.0511177
0.270939 0.123873 0.0483406
0.282795 0.124117 0.0455482
0.294728 0.124331 0.0427405
0.306722 0.124544 0.0399329
0.318776 0.124758 0.0371252
0.330907 0.124956 0.034287
0.343099 0.125154 0.0314488
0.355337 0.125338 0.0286107
0.367651 0.125521 0.0257572
0.380011 0.125704 0.0228885
0.392416 0.125887 0.0200046
0.404883 0.126055 0.0171206
0.41738 0.126223 0.0142214
0.429938 0.126375 0.0113222
0.442557 0.126543 0.00840772
0.455192 0.126696 0.00547799
0.467887 0.126848 0.00254826
0.480629 0.127001 0
0.493416 0.127153 0
0.506233 0.127291 0
0.519097 0.127443 0
0.532006 0.127581 0
0.544961 0.127718 0
0.557946 0.127855 0
0.570962 0.127993 0
0.584039 0.12813 0
0.597131 0.128267 0
0.610269 0.128405 0
0.623438 0.128542 0
0.636652 0.128679 0
0.649882 0.128817 0
0.663157 0.128939 0
0.676478 0.129076 0
0.689815 0.129198 0
0.703197 0.129335 0
0.716609 0.129458 0
0.730037 0.129595 0
0.743511 0.129717 0
0.757015 0.129854 0
0.77055 0.129976 0
0.784115 0.130098 0
0.797696 0.130236 0
0.811322 0.130358 0
0.824979 0.13048 0
0.838651 0.130602 0
0.852354 0.130739 0
0.866102 0.130861 0
0.879866 0.130983 0
0.0814069 0.130571 0.0825666
0.0929732 0.130449 0.0823682
0.105882 0.129961 0.0820783
0.119356 0.129213 0.0828107
0.131914 0.128695 0.0839551
0.143511 0.128542 0.084535
0.153887 0.128908 0.0837262
0.16347 0.129671 0.081529
0.1729 0.130571 0.0785077
0.18262 0.131411 0.0752575
0.192767 0.132143 0.0720226
0.203311 0.132769 0.0688945
0.21413 0.133303 0.0658274
0.225193 0.133776 0.0628367
0.236454 0.134203 0.0598764
0.247868 0.134585 0.0569619
0.259403 0.134936 0.054078
0.271061 0.135271 0.051194
0.282826 0.135576 0.0483406
0.294682 0.135866 0.0454719
0.30663 0.136141 0.0426032
0.318639 0.1364 0.0397498
0.330724 0.136645 0.0368811
0.342885 0.136889 0.0340124
0.355108 0.137118 0.0311437
0.367407 0.137346 0.028275
0.379736 0.137575 0.0253758
0.392142 0.137789 0.0224918
0.404593 0.137987 0.0195926
0.417105 0.138186 0.0166781
0.429664 0.138384 0.0137636
0.442267 0.138582 0.0108492
0.454917 0.138766 0.00793469
0.467613 0.138949 0.00500496
0.480354 0.139132 0.00205997
0.493156 0.139315 0
0.505974 0.139483 0
0.518853 0.139651 0
0.531762 0.139818 0
0.544717 0.139986 0
0.557717 0.140154 0
0.570748 0.140322 0
0.583825 0.14049 0
0.596933 0.140642 0
0.610071 0.14081 0
0.623255 0.140963 0
0.636469 0.141131 0
0.649729 0.141283 0
0.66302 0.141436 0
0.676341 0.141588 0
0.689693 0.141741 0
0.70309 0.141894 0
0.716503 0.142046 0
0.729961 0.142199 0
0.74345 0.142351 0
0.756954 0.142489 0
0.770504 0.142641 0
0.784085 0.142794 0
0.797696 0.142931 0
0.811322 0.143084 0
0.824994 0.143221 0
0.838682 0.143374 0
0.852399 0.143526 0
0.866148 0.143664 0
0.879927 0.143801 0
0.0807965 0.141985 0.0819104
0.0923171 0.141924 0.0817731
0.104799 0.141604 0.0814221
0.118486 0.140887 0.0815595
0.131838 0.1402 0.0825818
0.144472 0.139712 0.0837568
0.156359 0.139513 0.0844739
0.167224 0.139742 0.0841077
0.177295 0.140352 0.0825208
0.186892 0.141207 0.0799268
0.19649 0.142138 0.0767987
0.206363 0.143008 0.0735027
0.216587 0.143786 0.0701762
0.227176 0.144472 0.0669566
0.238025 0.145068 0.0637827
0.249119 0.145602 0.0606851
0.260395 0.14609 0.0576181
0.271855 0.146532 0.054612
0.283452 0.146929 0.0516213
0.295155 0.147311 0.048661
0.306996 0.147662 0.045716
0.318914 0.147997 0.042771
0.330922 0.148302 0.0398566
0.343023 0.148608 0.0369268
0.355184 0.148898 0.0340124
0.367422 0.149172 0.0310826
0.379736 0.149447 0.0281682
0.392096 0.149691 0.0252384
0.404532 0.14995 0.0223239
0.417014 0.150195 0.0193942
0.429557 0.150423 0.0164645
0.442145 0.150652 0.0135195
0.454795 0.150881 0.0105898
0.467475 0.151095 0.00762951
0.480217 0.151308 0.00469978
0.493004 0.151522 0.00173953
0.505821 0.15172 0
0.5187 0.151919 0
0.531609 0.152117 0
0.544564 0.152316 0
0.557565 0.152514 0
0.570611 0.152697 0
0.583688 0.152895 0
0.596796 0.153079 0
0.609949 0.153262 0
0.623148 0.153445 0
0.636362 0.153628 0
0.649638 0.153811 0
0.662928 0.153994 0
0.676265 0.154162 0
0.689632 0.154345 0
0.703014 0.154513 0
0.716457 0.154696 0
0.729915 0.154864 0
0.743404 0.155047 0
0.756924 0.155215 0
0.770489 0.155383 0
0.78407 0.15555 0
0.797681 0.155718 0
0.811337 0.155886 0
0.82501 0.156039 0
0.838727 0.156207 0
0.852445 0.156374 0
0.866209 0.156542 0
0.880003 0.15671 0
0.0801862 0.153552 0.0812543
0.0917067 0.153521 0.081178
0.103929 0.153323 0.0808576
0.117327 0.152773 0.0806592
0.131212 0.15201 0.0812543
0.144488 0.151369 0.0823987
0.157229 0.150912 0.0835889
0.16936 0.150683 0.0843977
0.180606 0.15082 0.0843366
0.191089 0.151293 0.0832227
0.201038 0.152041 0.0811322
0.210742 0.152956 0.0783093
0.220523 0.153903 0.0751049
0.230533 0.154788 0.0717479
0.240848 0.155612 0.0683757
0.251499 0.156329 0.0650797
0.262394 0.156985 0.0618296
0.273518 0.15758 0.0586252
0.28484 0.158114 0.0554818
0.296315 0.158618 0.052369
0.307958 0.159075 0.0493019
0.319722 0.159487 0.0462654
0.331609 0.159884 0.0432441
0.343587 0.160266 0.040238
0.355657 0.160616 0.0372473
0.367819 0.160967 0.0342565
0.380056 0.161288 0.031281
0.392355 0.161593 0.0283055
0.40473 0.161898 0.0253452
0.417182 0.162188 0.0223697
0.429679 0.162463 0.0194095
0.442237 0.162737 0.016434
0.454856 0.163012 0.0134737
0.467521 0.163256 0.0104982
0.480247 0.163516 0.00753796
0.493004 0.16376 0.00456245
0.505821 0.164004 0.0016022
0.518685 0.164233 0
0.531594 0.164462 0
0.544549 0.164691 0
0.557534 0.16492 0
0.570565 0.165133 0
0.583642 0.165347 0
0.596765 0.16556 0
0.609918 0.165774 0
0.623102 0.165988 0
0.636332 0.166201 0
0.649607 0.1664 0
0.662898 0.166613 0
0.676234 0.166812 0
0.689601 0.16701 0
0.703014 0.167208 0
0.716442 0.167407 0
0.729915 0.167605 0
0.74342 0.167788 0
0.756954 0.167987 0
0.770504 0.16817 0
0.784115 0.168368 0
0.797742 0.168551 0
0.811399 0.168734 0
0.825071 0.168933 0
0.838788 0.169116 0
0.852537 0.169299 0
0.8663 0.169482 0
0.880095 0.169665 0
0.0795758 0.165255 0.0806134
0.0910964 0.165255 0.0805676
0.103197 0.165133 0.0803082
0.116228 0.164736 0.0800031
0.13019 0.164034 0.0801556
0.144045 0.163302 0.0810407
0.157321 0.162707 0.0822614
0.170169 0.162264 0.0834669
0.182498 0.16202 0.0843366
0.194064 0.162081 0.0844892
0.204929 0.162463 0.0837415
0.215228 0.163104 0.0820783
0.225177 0.163943 0.0796521
0.235004 0.164889 0.0766766
0.244953 0.16585 0.0734112
0.2551 0.166766 0.0700084
0.265507 0.16762 0.0665904
0.276188 0.168399 0.0632029
0.28716 0.169085 0.0599069
0.298329 0.169726 0.0566415
0.309682 0.170306 0.0534066
0.321218 0.170855 0.0502327
0.332891 0.171344 0.0470893
0.344701 0.171817 0.0439612
0.356634 0.172259 0.0408789
0.368658 0.172686 0.0378119
0.380789 0.173083 0.0347601
0.392996 0.173449 0.0317082
0.405295 0.173816 0.028687
0.41767 0.174166 0.0256504
0.430106 0.174502 0.0226444
0.442618 0.174823 0.0196384
0.455177 0.175128 0.0166171
0.467811 0.175433 0.013611
0.480491 0.175723 0.0106203
0.493233 0.176013 0.00761425
0.50602 0.176287 0.00462348
0.518853 0.176562 0.00163272
0.531746 0.176822 0
0.544671 0.177081 0
0.557641 0.17734 0
0.570672 0.1776 0
0.583734 0.177844 0
0.596841 0.178088 0
0.609995 0.178332 0
0.623178 0.178561 0
0.636408 0.178805 0
0.649668 0.179034 0
0.662959 0.179263 0
0.676295 0.179492 0
0.689662 0.179721 0
0.703075 0.179934 0
0.716503 0.180163 0
0.729976 0.180377 0
0.743481 0.180606 0
0.757031 0.180819 0
0.770596 0.181033 0
0.784192 0.181231 0
0.797818 0.181445 0
0.811475 0.181659 0
0.825177 0.181872 0
0.83888 0.182071 0
0.852644 0.182284 0
0.866423 0.182483 0
0.880232 0.182681 0
0.0789807 0.177096 0.0799725
0.0905165 0.177127 0.0799725
0.102525 0.17705 0.0797742
0.115297 0.176776 0.0794537
0.12903 0.176211 0.0793317
0.143206 0.175448 0.0798352
0.157015 0.174762 0.0809033
0.170306 0.174212 0.0821546
0.183276 0.17377 0.0833753
0.195773 0.17351 0.0843061
0.207614 0.173526 0.0846113
0.218814 0.173816 0.0841535
0.22945 0.174365 0.0828565
0.239704 0.175128 0.080827
0.249699 0.176043 0.0781415
0.259663 0.17702 0.0750439
0.269734 0.177981 0.0717327
0.280018 0.178912 0.0682994
0.290532 0.179797 0.0648356
0.301289 0.180606 0.0614023
0.312322 0.181338 0.0580453
0.323537 0.18201 0.0547189
0.334936 0.18265 0.0514229
0.346502 0.18323 0.0481727
0.358221 0.18378 0.0449531
0.370062 0.184283 0.0417792
0.38204 0.184771 0.0386206
0.39411 0.185229 0.0354925
0.406287 0.185672 0.0323796
0.418555 0.186084 0.0292821
0.4309 0.186481 0.0261997
0.44332 0.186862 0.0231174
0.455817 0.187228 0.0200656
0.468391 0.187579 0.0169985
0.48101 0.18793 0.013962
0.493706 0.188251 0.0109102
0.506447 0.188586 0.00788891
0.519249 0.188891 0.00485237
0.532097 0.189197 0.00183108
0.545007 0.189502 0
0.557946 0.189792 0
0.570947 0.190082 0
0.583993 0.190356 0
0.59707 0.190631 0
0.610208 0.190906 0
0.623377 0.19118 0
0.636591 0.19144 0
0.649836 0.191699 0
0.663127 0.191959 0
0.676463 0.192218 0
0.68983 0.192462 0
0.703227 0.192721 0
0.71667 0.192966 0
0.730129 0.19321 0
0.743633 0.193454 0
0.757168 0.193698 0
0.770733 0.193927 0
0.784329 0.194171 0
0.797971 0.1944 0
0.811627 0.194629 0
0.82533 0.194858 0
0.839048 0.195087 0
0.852796 0.195315 0
0.86659 0.195544 0
0.880385 0.195773 0
0.0784009 0.189044 0.0793317
0.0899367 0.18912 0.0793774
0.1019 0.18909 0.0792248
0.114488 0.188907 0.0789349
0.127932 0.188464 0.0786908
0.142123 0.187778 0.0788434
0.156344 0.18703 0.0796216
0.170123 0.186374 0.0807965
0.183474 0.185855 0.0820783
0.196536 0.185428 0.0833143
0.209201 0.185153 0.0842908
0.221271 0.185122 0.0847334
0.232761 0.185351 0.0845045
0.243717 0.185824 0.0835126
0.254231 0.186511 0.0818036
0.264485 0.18735 0.0794537
0.274556 0.188312 0.0766003
0.284657 0.189303 0.0734264
0.294881 0.190295 0.0700542
0.305272 0.191241 0.0666056
0.315892 0.192142 0.0631113
0.326726 0.192981 0.0596323
0.337789 0.193744 0.056199
0.349081 0.194461 0.0528267
0.360525 0.195132 0.049485
0.372137 0.195758 0.0461738
0.383886 0.196353 0.0428931
0.395789 0.196902 0.0396582
0.407797 0.197421 0.0364538
0.419913 0.19791 0.0332647
0.432135 0.198383 0.0300908
0.444434 0.19884 0.0269474
0.45684 0.199268 0.0238193
0.469306 0.199695 0.0206912
0.481865 0.200092 0.0175937
0.494484 0.200473 0.0144961
0.507164 0.200855 0.0113985
0.519905 0.201205 0.00831617
0.532708 0.201556 0.0052491
0.545556 0.201907 0.0021973
0.558465 0.202243 0
0.571435 0.202564 0
0.584436 0.202884 0
0.597498 0.203189 0
0.610605 0.20351 0
0.623743 0.2038 0
0.636942 0.204105 0
0.650172 0.204395 0
0.663447 0.204685 0
0.676753 0.204974 0
0.690105 0.205249 0
0.703502 0.205524 0
0.71693 0.205798 0
0.730388 0.206073 0
0.743877 0.206332 0
0.757412 0.206607 0
0.770977 0.206867 0
0.784573 0.207126 0
0.798199 0.207385 0
0.811856 0.207645 0
0.825559 0.207889 0
0.839277 0.208148 0
0.853025 0.208392 0
0.866804 0.208637 0
0.880629 0.208881 0
0.077821 0.201129 0.078706
0.0893721 0.201221 0.0787823
0.10132 0.201236 0.0786908
0.113787 0.201114 0.0784314
0.12697 0.200793 0.0781567
0.140978 0.200214 0.0780804
0.155398 0.199466 0.0785382
0.169589 0.198749 0.0794995
0.183368 0.198138 0.0807507
0.19678 0.197635 0.0820478
0.209964 0.197223 0.083299
0.222782 0.196948 0.0843061
0.23505 0.196887 0.0848554
0.246784 0.197055 0.0847944
0.258015 0.197467 0.0840772
0.268833 0.198077 0.0826581
0.279332 0.19884 0.0806439
0.289586 0.199756 0.0780499
0.299763 0.200748 0.0750744
0.309987 0.201755 0.0718242
0.320333 0.202762 0.0684062
0.330846 0.203723 0.0649271
0.341558 0.204639 0.0614023
0.352483 0.205509 0.0578775
0.363592 0.206317 0.0543984
0.37496 0.20705 0.0510109
0.38645 0.207767 0.0476081
0.398093 0.208423 0.0442359
0.409903 0.209049 0.0409094
0.42182 0.209644 0.0376135
0.433875 0.210208 0.0343481
0.446036 0.210727 0.0311131
0.458289 0.211246 0.0278935
0.470649 0.211734 0.0246891
0.483085 0.212192 0.0215152
0.495613 0.212634 0.0183566
0.508202 0.213077 0.0152132
0.520867 0.213489 0.0120699
0.533593 0.213901 0.00894179
0.546395 0.214282 0.00582895
0.559243 0.214664 0.00273136
0.572152 0.21503 0
0.585122 0.215396 0
0.598138 0.215747 0
0.6112 0.216098 0
0.624308 0.216434 0
0.637476 0.21677 0
0.650675 0.21709 0
0.66392 0.217426 0
0.677211 0.217731 0
0.690547 0.218051 0
0.703914 0.218357 0
0.717327 0.218662 0
0.73077 0.218967 0
0.744259 0.219257 0
0.757763 0.219547 0
0.771328 0.219837 0
0.784909 0.220127 0
0.798535 0.220401 0
0.812192 0.220676 0
0.825864 0.220966 0
0.839582 0.221241 0
0.853346 0.221515 0
0.867109 0.221775 0
0.880934 0.222049 0
0.0772412 0.213321 0.0780957
0.0888228 0.213443 0.0782025
0.10074 0.213489 0.0781415
0.11313 0.213413 0.0779431
0.126146 0.213184 0.0776532
0.139895 0.212726 0.0774701
0.154284 0.212055 0.0776379
0.16878 0.211307 0.0783398
0.182971 0.21062 0.0794385
0.19675 0.21004 0.0807355
0.210239 0.209552 0.0820478
0.223529 0.20914 0.0833143
0.236484 0.208865 0.0843671
0.248936 0.208789 0.0849928
0.260899 0.208911 0.0850843
0.272389 0.209262 0.0845655
0.283467 0.209796 0.0834211
0.294194 0.210513 0.0816663
0.304692 0.211368 0.0793774
0.315007 0.212329 0.0766155
0.325292 0.213336 0.0735332
0.335668 0.214343 0.0702678
0.346105 0.215381 0.0667887
0.356725 0.216358 0.0632639
0.367529 0.217288 0.0597238
0.378531 0.218189 0.0561685
0.3897 0.219028 0.0526436
0.401129 0.219791 0.0492103
0.412665 0.220539 0.0457618
0.424369 0.221225 0.042359
0.43621 0.221897 0.0389868
0.448173 0.222522 0.0356298
0.460258 0.223117 0.0323186
0.472465 0.223682 0.0290379
0.484764 0.224216 0.0257725
0.497154 0.224735 0.0225223
0.509636 0.225238 0.0193027
0.52221 0.225727 0.0160983
0.534844 0.226184 0.0129091
0.547555 0.226627 0.00973526
0.560327 0.22707 0.00657664
0.573159 0.227481 0.00343328
0.586069 0.227893 0.000320439
0.599023 0.22829 0
0.612039 0.228687 0
0.625101 0.229068 0
0.638224 0.229435 0
0.651377 0.229801 0
0.664591 0.230152 0
0.677852 0.230503 0
0.691157 0.230854 0
0.704494 0.231189 0
0.717876 0.231525 0
0.731304 0.231861 0
0.744762 0.232181 0
0.758267 0.232502 0
0.771801 0.232822 0
0.785367 0.233143 0
0.798978 0.233448 0
0.812619 0.233753 0
0.826291 0.234058 0
0.840009 0.234363 0
0.853742 0.234653 0
0.867521 0.234943 0
0.881331 0.235233 0
0.0766918 0.22562 0.0775006
0.0882734 0.225772 0.0776226
0.100191 0.225849 0.0776074
0.11252 0.225818 0.0774548
0.125399 0.225666 0.0771801
0.138933 0.225315 0.0769513
0.15317 0.224735 0.0769207
0.167788 0.224002 0.077348
0.1823 0.22327 0.078233
0.19646 0.222629 0.0794232
0.210285 0.222065 0.0807507
0.22385 0.221592 0.0820783
0.237232 0.221195 0.08336
0.250324 0.220905 0.0844434
0.262943 0.220813 0.0851301
0.275105 0.220905 0.085359
0.286824 0.22121 0.0850233
0.298146 0.221683 0.0841077
0.309117 0.222339 0.0825971
0.31986 0.223133 0.0805982
0.330343 0.224048 0.0780804
0.340734 0.22504 0.0751812
0.351125 0.226078 0.0720073
0.361624 0.2271 0.0686961
0.372152 0.228138 0.0651713
0.382895 0.229145 0.0616312
0.39379 0.230091 0.0580606
0.404852 0.231006 0.05449
0.416098 0.231876 0.0509194
0.427512 0.2327 0.0473945
0.43917 0.233448 0.0439765
0.450919 0.23418 0.0405127
0.462806 0.234867 0.0371099
0.474815 0.235523 0.0337224
0.486946 0.236149 0.0303502
0.499168 0.236759 0.0270237
0.511513 0.237324 0.0237125
0.523949 0.237873 0.0204318
0.536461 0.238407 0.0171664
0.549065 0.238926 0.0139162
0.561746 0.239414 0.0106966
0.574502 0.239887 0.00749218
0.58732 0.24036 0.00428778
0.600198 0.240803 0.00112917
0.613138 0.241245 0
0.626154 0.241657 0
0.639216 0.242084 0
0.652323 0.242481 0
0.665492 0.242878 0
0.678706 0.243275 0
0.691966 0.243656 0
0.705272 0.244038 0
0.718624 0.244404 0
0.732006 0.24477 0
0.745434 0.245121 0
0.758923 0.245487 0
0.772427 0.245823 0
0.785977 0.246174 0
0.799573 0.246509 0
0.813199 0.246845 0
0.826856 0.247166 0
0.840543 0.247501 0
0.854261 0.247822 0
0.86804 0.248142 0
0.881819 0.248463 0
0.0761425 0.238041 0.0769055
0.0877394 0.238209 0.0770581
0.0996567 0.238315 0.0770733
0.111955 0.238331 0.0769513
0.124712 0.238224 0.0767376
0.138079 0.237949 0.0764782
0.152117 0.237476 0.0763409
0.16669 0.23682 0.076524
0.181415 0.236088 0.0771649
0.195911 0.235386 0.0781872
0.210086 0.23476 0.0794537
0.223957 0.234226 0.0808118
0.237598 0.233768 0.0821546
0.251072 0.233371 0.0834363
0.264286 0.233082 0.0845502
0.277058 0.232975 0.0853132
0.289418 0.233036 0.0856336
0.30135 0.233295 0.0854505
0.312901 0.233722 0.0847334
0.324102 0.234318 0.0834669
0.335012 0.235065 0.0816663
0.345739 0.23592 0.0794232
0.356268 0.236896 0.0767376
0.366735 0.237919 0.0737316
0.377234 0.238972 0.0704967
0.387823 0.240009 0.0671092
0.398489 0.241062 0.0635843
0.409323 0.242069 0.060029
0.42031 0.243046 0.0564279
0.431449 0.243977 0.0528267
0.442771 0.244862 0.0492409
0.454246 0.245716 0.0456703
0.46595 0.246479 0.0422217
0.477745 0.247242 0.0387274
0.489662 0.247974 0.0352636
0.501717 0.248661 0.0318456
0.513878 0.249317 0.0284428
0.526162 0.249943 0.0250706
0.538537 0.250553 0.0217288
0.551003 0.251133 0.0183871
0.563561 0.251698 0.0150912
0.576211 0.252232 0.0118105
0.588922 0.252766 0.00856031
0.601724 0.253269 0.00531014
0.614572 0.253758 0.00209049
0.627497 0.254231 0
0.640482 0.254704 0
0.653529 0.255146 0
0.666636 0.255589 0
0.679789 0.256031 0
0.693004 0.256443 0
0.706264 0.25687 0
0.71957 0.257267 0
0.732921 0.257679 0
0.746303 0.258061 0
